X:21053 
T:FAIRY JIG, The 
B:DMI.0319
Z:Nordberg/Black
R:jig
%Q:1/4=160
M:6/8
L:1/8
K:G
e|dBA BGA|GBd g2a|bgd dBG|FAA A2e|
dBA BGA|GBd gab|age dBA|BGG G2:|
d|edd deg|baa aga|bge dBG|FAA A2d|
edd deg|baa aga|bge dBA|BGG G2:|

%%%

